X: 55
T: Pollonesse #55
M: 3/4
L: 1/16
K: Bb
Q:120
B,DFA B4d4|[F2c2][Fc]d B4 d2f2|[g2e2][g2e2] [f2d2][f2d2] [F2c2][F2c2]|B2Bd cBAG FEDC|
B,DFA B4d4|[F2c2][Fc]d B4 d2f2|[g2e2][g2e2] [f2d2][f2d2] [F2c2][F2c2]| dcBA B4 B,4:|
f2ga b2ag f2ed|g2gf e2ed [F4c4]|A2ce g2fe d2cB|A2AB cBAG FEDC:|

